!!!!SEGMENT: pl-cz--i-169--002_zebrowski-marcin-jozef--andante-in-es.krn
!!!cenid: 17xx:2320
!!!COM: Żebrowski, Marcin Józef
!!!COM-rismID:
!!!CDT: 1702-1770/06/29
!!!CNT: Polish
!!!OTL: Andante in Es
!!!PDT:
!!!AGN:
!!!SMS-siglum: PL-CZ
!!!SMS-shelfmark: I-169
!!!SMS-shelfwork: 002 W
!!!SMS-variant:
!!!SMS-altvar:
!!!NIFC-rismSourceID: 300033512
!!!NIFC-islandoraID: pl-cz:983
!!!URL-pdf-islandora: https://repozytorium.nifc.pl/islandora/object/pl-cz%3A983/datastream/PDF/view
!!!URL-scan: https://polish.musicsources.pl/pl/lokalizacje/galeria/rekopisy/572 @EN{Scan on Polish Music Herritage in Open Access Website} @PL{Skany w portalu Dziedzictwo Muzyki Polskiej w otwartym dostępie}
!!!ONB-nifc: UWAGA: w zbiorze 2 Sonaty: 1. in G (Andante 1mo) i 2. in Es (Andante 2do)
!!!AIN: 1 cbass 2 clrno 2 oboe 1 organ 2 violn
!!!key: E-
**kern	**fba	**dynam	**kern	**dynam	**kern	**dynam	**kern	**dynam	**kern	**dynam	**kern	**dynam	**kern	**kern
*	*	*	*group3	*	*group3	*	*group3	*	*group2	*	*group2	*	*group1	*group1
*part8	*part8	*part8	*part7	*part7	*part6	*part6	*part5	*part5	*part4	*part4	*part3	*part3	*part2	*part1
*staff8	*	*	*staff7	*	*staff6	*	*staff5	*	*staff4	*	*staff3	*	*staff2	*staff1
*I"Organo	*	*	*I"Baſso.	*	*I"Violino Secondo.	*	*I"Violino Primo.	*	*I"Clarino Secondo. Ex dis	*	*I"Clarino Primo. ex e b.	*	*I"Hoboe 2do.	*I"Hoboe Imo.
*I'org	*	*	*I'cb	*	*I'vl 2	*	*I'vl 1	*	*I'clno 2 in E|b	*	*I'clno 1 in E|b	*	*I'ob 2	*I'ob 1
*Iorgan	*	*	*Icbass	*	*Ivioln	*	*Ivioln	*	*Iclrno	*	*Iclrno	*	*Ioboe	*Ioboe
*ICklav	*	*	*ICstr	*	*ICstr	*	*ICstr	*	*ICbras	*	*ICbras	*	*ICww	*ICww
*IGcont	*	*	*	*	*	*	*	*	*	*	*	*	*	*
*clefF4	*	*	*clefF4	*	*clefG2	*	*clefG2	*	*clefG2	*	*clefG2	*	*clefG2	*clefG2
*	*	*	*	*	*	*	*	*	*ITrd-2c-3	*	*ITrd-2c-3	*	*	*
*k[e-a-b-]	*	*	*k[e-a-b-]	*	*k[e-b-a-]	*	*k[e-b-a-]	*	*k[b-e-a-]	*	*k[b-e-a-]	*	*k[e-b-a-]	*k[e-b-a-]
*E-:	*	*	*E-:	*	*E-:	*	*E-:	*	*E-:	*	*E-:	*	*E-:	*E-:
*M2/4	*	*	*M2/4	*	*M2/4	*	*M2/4	*	*M2/4	*	*M2/4	*	*M2/4	*M2/4
=	=	=	=	=	=	=	=	=	=	=	=	=	=	=
!LO:TX:a:t=Andante. 2do	!	!	!LO:TX:a:t=Andante. 2do	!	!LO:TX:a:t=Andante. 2do	!	!LO:TX:a:t=Andante. 2do	!	!	!	!LO:TX:a:t=Andante. 2do.	!	!LO:TX:a:t=Andante.2do.	!LO:TX:a:t=Andante. 2do.
!LO:TX:t=P:problem=znaki E- A- BB-	!	!	!LO:TX:t=P:problem=znaki E- A- BB-	!	!	!	!	!	!	!	!	!	!	!
8r	.	.	8r	.	16.e-/LL	.	16.g/LL	.	16.ee-\LL	.	16.gg\LL	.	16.e-/LL	16.g/LL
.	.	.	.	.	32f/JJk	.	32a-/JJk	.	32ff\JJk	.	32aa-\JJk	.	32f/JJk	32a-/JJk
=1	=1	=1	=1	=1	=1	=1	=1	=1	=1	=1	=1	=1	=1	=1
!LO:TX:a:t=P:problem=mixed beam	!	!	!	!	!	!	!	!	!	!	!	!	!	!
8E-\L	.	.	8E-\L	.	8g/L	.	8b-/L	.	8gg\L	.	8bb-\L	.	8g/L	8b-/L
8E-\	.	.	8E-\	.	16.e-/L	.	16.g/L	.	16.ee-\L	.	16.gg\L	.	16.e-/L	16.g/L
.	.	.	.	.	32f/JJk	.	32a-/JJk	.	32ff\JJk	.	32aa-\JJk	.	32f/JJk	32a-/JJk
8E-\	.	.	8E-\	.	8g/L	.	8b-\L	.	8gg\L	.	8bb-\L	.	8g/L	8b-\L
8AA-/J	.	.	8AA-\J	.	8a-/J	.	8cc\J	.	8aa-\J	.	8ccc\J	.	8a-/J	8cc\J
=2	=2	=2	=2	=2	=2	=2	=2	=2	=2	=2	=2	=2	=2	=2
.	.	.	.	.	8qqb-/	.	8qqdd/	.	8qqbb-/	.	.	.	8qqb-/	8qqdd/
!LO:TX:a:t=P:problem=mixed beam	!	!	!LO:TX:a:t=P:problem=mixed beam	!	!	!	!	!	!	!	!	!	!	!
8E-\L	6 4	.	8E-\L	.	8a-/L	.	8cc\L	.	8aa-\L	.	8ccc\L	.	8a-/L	8cc\L
8EE-/J	5 3	.	8EE-/J	.	8g/J	.	8b-\J	.	8gg\J	.	8bb-\J	.	8g/J	8b-\J
8r	.	.	8r	.	4gg\	.	4bb-\	.	8r	.	8r	.	4gg\	4bb-\
8E-\	.	.	8E-\	.	.	.	.	.	8gg\	.	8bb-\	.	.	.
=3	=3	=3	=3	=3	=3	=3	=3	=3	=3	=3	=3	=3	=3	=3
.	.	.	.	.	.	.	.	.	8qqgg/	.	8qqbb-/	.	.	.
!LO:TX:a:t=P:problem=mixed beam	!	!	!LO:TX:a:t=P:problem=mixed beam	!	!	!	!	!	!	!	!	!	!	!
8B-\L	7	.	8B-\L	.	(32ff\KLL	.	(32aa-\KLL	.	4.ff\	.	4.aa-\	.	(32ff\KLL	(32aa-\KLL
.	.	.	.	.	16.ee-\JJ)	.	16.gg\JJ)	.	.	.	.	.	16.ee-\JJ)	16.gg\JJ)
8BB-/	.	.	8BB-/	.	(32dd\KLL	.	(32ff\KLL	.	.	.	.	.	(32dd\KLL	(32ff\KLL
.	.	.	.	.	16.cc\JJ)	.	16.ee-\JJ)	.	.	.	.	.	16.cc\JJ)	16.ee-\JJ)
8BB-/	.	.	8BB-/	.	(32b-/KLL	.	(32dd\KLL	.	.	.	.	.	(32b-/KLL	(32dd\KLL
.	.	.	.	.	16.a-/JJ)	.	16.cc\JJ)	.	.	.	.	.	16.a-/JJ)	16.cc\JJ)
8BB-/J	.	.	8BB-/J	.	(32g/KLL	.	(32b-/KLL	.	8ff\	.	8aa-\	.	(32g/KLL	(32b-/KLL
.	.	.	.	.	16.f/JJ)	.	16.a-/JJ)	.	.	.	.	.	16.f/JJ)	16.a-/JJ)
=4	=4	=4	=4	=4	=4	=4	=4	=4	=4	=4	=4	=4	=4	=4
!LO:TX:a:t=P:problem=mixed beam	!	!	!LO:TX:a:t=P:problem=mixed beam	!	!	!	!	!	!	!	!	!	!	!
8E-\L	.	.	8E-\L	.	16e-/LL	.	16g/LL	.	16ee-\LL	.	16gg\LL	.	16e-/LL	16g/LL
.	.	.	.	.	16f/J	.	16a-/J	.	16ff\J	.	16aa-\J	.	16f/J	16a-/J
8EE-/J	.	.	8EE-/J	.	8g/J	.	8b-/J	.	8gg\J	.	8bb-\J	.	8g/J	8b-/J
8r	.	.	8r	.	4gg\	.	4bb-\	.	8r	.	8r	.	4gg\	4bb-\
8E-\	.	.	8E-\	.	.	.	.	.	8gg\	.	8bb-\	.	.	.
=5	=5	=5	=5	=5	=5	=5	=5	=5	=5	=5	=5	=5	=5	=5
.	.	.	.	.	.	.	.	.	8qqgg/	.	8qqbb-/	.	.	.
!LO:TX:a:t=P:problem=mixed beam	!	!	!LO:TX:a:t=P:problem=mixed beam	!	!	!	!	!	!	!	!	!	!	!
8B-\L	7	.	8B-\L	.	(32ff\KLL	.	(32aa-\KLL	.	4.ff\	.	4.aa-\	.	(32ff\KLL	(32aa-\KLL
.	.	.	.	.	16.ee-\JJ)	.	16.gg\JJ)	.	.	.	.	.	16.ee-\JJ)	16.gg\JJ)
8BB-/	.	.	8BB-/	.	(32dd\KLL	.	(32ff\KLL	.	.	.	.	.	(32dd\KLL	(32ff\KLL
.	.	.	.	.	16.cc\JJ)	.	16.ee-\JJ)	.	.	.	.	.	16.cc\JJ)	16.ee-\JJ)
8BB-/	.	.	8BB-/	.	(32b-/KLL	.	(32dd\KLL	.	.	.	.	.	(32b-/KLL	(32dd\KLL
.	.	.	.	.	16.a-/JJ)	.	16.cc\JJ)	.	.	.	.	.	16.a-/JJ)	16.cc\JJ)
8BB-/J	.	.	8BB-/J	.	(32g/KLL	.	(32b-/KLL	.	8ff\	.	8aa-\	.	(32g/KLL	(32b-/KLL
.	.	.	.	.	16.f/JJ)	.	16.a-/JJ)	.	.	.	.	.	16.f/JJ)	16.a-/JJ)
=6	=6	=6	=6	=6	=6	=6	=6	=6	=6	=6	=6	=6	=6	=6
4E-\	.	.	4E-\	.	16e-/LL	.	16g/LL	.	4ee-\	.	4gg\	.	16e-/LL	16g/LL
.	.	.	.	.	16f/J	.	16f/J	.	.	.	.	.	16f/J	16f/J
.	.	.	.	.	8g/J	.	8e-/J	.	.	.	.	.	8g/J	8e-/J
4r	.	.	4r	.	4r	.	8r	.	4r	.	4r	.	8r	8r
!	!	!	!	!	!	!	!	!	!	!	!	!	!LO:TX:b:t=Solo.	!LO:TX:b:t=Solo.
.	.	.	.	.	.	.	8bb-\	.	.	.	.	.	16.dd\LL	16.ff\LL
.	.	.	.	.	.	.	.	.	.	.	.	.	32ee-\JJk	32gg\JJk
=7	=7	=7	=7	=7	=7	=7	=7	=7	=7	=7	=7	=7	=7	=7
*	*	*	*	*	*	*	*2\right	*	*	*	*	*	*	*
!LO:TX:a:t=3.	!	!	!LO:TX:a:t=3.	!	!	!	!	!	!	!LO:DY:b:t=pia&colon;	!	!LO:DY:b:t=pia&colon;	!	!
1r	.	.	1r	.	4b-/	.	[2bb-\	.	8b-/L	p	8b-/L	p	8ff\L	8aa-\L
.	.	.	.	.	.	.	.	.	8b-/	.	8b-/	.	16.dd\L	16.ff\L
.	.	.	.	.	.	.	.	.	.	.	.	.	32ee-\JJk	32gg\JJk
.	.	.	.	.	8r	.	.	.	8b-/	.	8b-/	.	8ff\L	8aa-\L
.	.	.	.	.	8e-/	.	.	.	8e-/J	.	8e-/J	.	8ee-\J	8gg\J
=8	=8	=8	=8	=8	=8	=8	=8	=8	=8	=8	=8	=8	=8	=8
.	.	.	.	.	4B-/	.	2bb-\_	.	8b-/L	.	8b-/L	.	(8ee-\L	(8gg\L
.	.	.	.	.	.	.	.	.	8b-/	.	8b-/	.	16.dd\L)	16.ff\L)
.	.	.	.	.	.	.	.	.	.	.	.	.	32ee-\JJk|	32gg\JJk|
.	.	.	.	.	8r	.	.	.	8b-/	.	8b-/	.	8ff\L	8aa-\L
.	.	.	.	.	8e-/	.	.	.	8e-/J	.	8e-/J	.	8ee-\J	8gg\J
=9	=9	=9	=9	=9	=9	=9	=9	=9	=9	=9	=9	=9	=9	=9
2r	.	.	2r	.	4b-/	.	2bb-\_	.	8b-/L	.	8b-/L	.	(8ee-\L	(8gg\L
.	.	.	.	.	.	.	.	.	8b-/	.	8b-/	.	16.dd\L)	16.ff\L)
.	.	.	.	.	.	.	.	.	.	.	.	.	32ee-\JJk|	32gg\JJk|
.	.	.	.	.	8r	.	.	.	8b-/	.	8b-/	.	8ff\L	8aa-\L
.	.	.	.	.	8e-/	.	.	.	8e-/J	.	8e-/J	.	8ee-\J	8gg\J
!	!	!	!	!	!LO:LB:g=original	!	!	!	!	!	!	!	!	!
=10	=10	=10	=10	=10	=10	=10	=10	=10	=10	=10	=10	=10	=10	=10
.	.	.	.	.	.	.	.	.	.	.	.	.	8qqff/	8qqaa-/
8r	.	.	8r	.	8B-/L	.	4bb-\]	.	8b-/L	.	8b-/L	.	8ee-\L	8gg\L
16.BB-/LL	.	.	16.BB-/LL	.	16.e-/L	.	.	.	8B-/J	.	8b-/J	.	8dd\J	8ff\J
32C/JJk	.	.	32C/JJk	.	32f/JJk	.	.	.	.	.	.	.	.	.
!	!	!	!	!	!LO:TX:a:t=P:problem=mixed beam	!	!	!	!	!	!	!	!	!
8D/L	6	.	8D/L	.	8f/L	.	8r	.	4r	.	4r	.	4r	4r
8BB-/J	.	.	8BB-/J	.	8dd\J	.	8ff\	.	.	.	.	.	.	.
=11	=11	=11	=11	=11	=11	=11	=11	=11	=11	=11	=11	=11	=11	=11
!	!	!	!	!	!	!	!	!	!LO:TX:a:t=3.	!	!LO:TX:a:t=3.	!	!LO:TX:a:t=2.	!LO:TX:a:t=2.
4E-\	.	.	4E-\	.	(32ee-\LLL	.	(32gg\LLL	.	1r	.	1r	.	1r	1r
.	.	.	.	.	32ff\J	.	32aa-\J	.	.	.	.	.	.	.
.	.	.	.	.	16gg\JJ)	.	16bb-\JJ)	.	.	.	.	.	.	.
.	.	.	.	.	(16gg'\LL	.	(16bb-'\LL	.	.	.	.	.	.	.
.	.	.	.	.	16gg'\JJ)	.	16bb-'\JJ)	.	.	.	.	.	.	.
.	.	.	.	.	8qqgg/	.	8qqbb-/	.	.	.	.	.	.	.
16r	.	.	16r	.	4ff\	.	4aa-\	.	.	.	.	.	.	.
16D/LL	6 5	.	16D/LL	.	.	.	.	.	.	.	.	.	.	.
16C/	.	.	16C/	.	.	.	.	.	.	.	.	.	.	.
16BB-/JJ	.	.	16BB-/JJ	.	.	.	.	.	.	.	.	.	.	.
=12	=12	=12	=12	=12	=12	=12	=12	=12	=12	=12	=12	=12	=12	=12
4E-\	.	.	4E-\	.	(32ee-\LLL	.	(32gg\LLL	.	.	.	.	.	.	.
.	.	.	.	.	32ff\J	.	32aa-\J	.	.	.	.	.	.	.
.	.	.	.	.	16gg\JJ)	.	16bb-\JJ)	.	.	.	.	.	.	.
.	.	.	.	.	(16gg'\LL	.	(16bb-'\LL	.	.	.	.	.	.	.
.	.	.	.	.	16gg'\JJ)	.	16bb-'\JJ)	.	.	.	.	.	.	.
.	.	.	.	.	8qqgg/	.	8qqbb-/	.	.	.	.	.	.	.
16r	.	.	16r	.	4ff\	.	4aa-\	.	.	.	.	.	.	.
16D/LL	6 5	.	16D/LL	.	.	.	.	.	.	.	.	.	.	.
16C/	.	.	16C/	.	.	.	.	.	.	.	.	.	.	.
16BB-/JJ	.	.	16BB-/JJ	.	.	.	.	.	.	.	.	.	.	.
!LO:LB:g=original	!	!	!	!	!	!	!LO:LB:g=original	!	!	!	!	!	!	!LO:LB:g=original
=13	=13	=13	=13	=13	=13	=13	=13	=13	=13	=13	=13	=13	=13	=13
!LO:TX:a:t=P:problem=mixed beam	!	!	!LO:TX:a:t=P:problem=mixed beam	!	!	!	!	!	!	!	!	!	!	!
8E-\L	.	.	8E-\L	.	(16ee-\LL	.	(16gg\LL	.	2r	.	2r	.	4r	4r
.	.	.	.	.	16dd\	.	16ff\	.	.	.	.	.	.	.
8A-\	7 5	.	8A-\	.	16ee-\)	.	16gg\)	.	.	.	.	.	.	.
.	.	.	.	.	16ff\JJ|	.	16aa-\JJ|	.	.	.	.	.	.	.
.	.	.	.	.	8qqee-/	.	8qqgg/	.	.	.	.	.	.	.
!	!	!	!	!	!LO:TX:a:t=t.	!	!LO:TX:a:t=t	!	!	!	!	!	!	!
8B-\	4	.	8B-\	.	4dd\	.	4ff\	.	.	.	.	.	8r	8r
8BB-/J	3	.	8BB-/J	.	.	.	.	.	.	.	.	.	8dd\	8ff\
!	!	!	!	!	!	!	!	!	!	!	!	!	!LO:LB:g=original	!
=14	=14	=14	=14	=14	=14	=14	=14	=14	=14	=14	=14	=14	=14	=14
4E-\	.	.	4E-\	.	4ee-\	.	4ee-\	.	4r	.	4r	.	(32ee-\LLL	(32gg\LLL
.	.	.	.	.	.	.	.	.	.	.	.	.	32ff\J	32aa-\J
.	.	.	.	.	.	.	.	.	.	.	.	.	16gg\JJ)	16bb-\JJ)
.	.	.	.	.	.	.	.	.	.	.	.	.	(16gg'\LL	(16bb-'\LL
.	.	.	.	.	.	.	.	.	.	.	.	.	16gg'\JJ)	16bb-'\JJ)
.	.	.	.	.	.	.	.	.	.	.	.	.	8qqgg/	8qqbb-/
16r	.	.	16r	.	4r	.	4r	.	8r	.	8r	.	4ff\	4aa-\
16D/LL	6 5	.	16D/LL	.	.	.	.	.	.	.	.	.	.	.
16C/	.	.	16C/	.	.	.	.	.	8b-/	.	8ff\	.	.	.
16BB-/JJ	.	.	16BB-/JJ	.	.	.	.	.	.	.	.	.	.	.
=15	=15	=15	=15	=15	=15	=15	=15	=15	=15	=15	=15	=15	=15	=15
!	!	!	!LO:TX:a:t=P:problem=mixed beam	!	!	!	!	!	!	!	!	!	!	!
4E-\	.	.	8E-\L	.	4r	.	4r	.	(32ee-\LLL	.	(32gg\LLL	.	4ee-\	4gg\
.	.	.	.	.	.	.	.	.	32ff\J	.	32aa-\J	.	.	.
.	.	.	.	.	.	.	.	.	16gg\JJ)	.	16bb-\JJ)	.	.	.
.	.	.	8AA-/	.	.	.	.	.	(16gg'\LL	.	(16bb-'\LL	.	.	.
.	.	.	.	.	.	.	.	.	16gg'\JJ)	.	16bb-'\JJ)	.	.	.
.	.	.	.	.	.	.	.	.	8qqgg/	.	8qqbb-/	.	.	.
16r	.	.	8BB-/	.	8r	.	8r	.	4ff\	.	4aa-\	.	8r	8r
16D/LL	6 5	.	.	.	.	.	.	.	.	.	.	.	.	.
16C/	.	.	8BB-/J	.	8f/	.	8a-/	.	.	.	.	.	8dd\	8ff\
16BB-/JJ	.	.	.	.	.	.	.	.	.	.	.	.	.	.
!	!	!	!	!	!	!	!	!	!LO:LB:g=original	!	!LO:LB:g=original	!	!	!
=16	=16	=16	=16	=16	=16	=16	=16	=16	=16	=16	=16	=16	=16	=16
!LO:TX:a:t=P:problem=mixed beam	!	!	!	!	!	!	!	!	!	!	!	!	!	!
8E-\L	.	.	4EE-/	.	(16e-/LL	.	(16g/LL	.	16ee-\LL	.	(16gg\LL	.	(16ee-\LL	(16gg\LL
.	.	.	.	.	16d/	.	16f/	.	16b-\	.	16ff\	.	16dd\	16ff\
8AA-/	7 5	.	.	.	16e-/)	.	16g/)	.	16ee-\	.	16gg\	.	16ee-\)	16gg\)
.	.	.	.	.	16f/JJ|	.	16g/JJ|	.	16ff\JJ	.	16aa-\JJ)	.	16ff\JJ|	16aa-\JJ|
!	!	!	!	!	!	!	!	!	!	!	!LO:TX:a:t=t	!	!	!
.	.	.	.	.	8qqe-/	.	.	.	.	.	8qqgg/	.	8qqee-/	8qqgg/
!	!	!	!	!	!LO:TX:a:t=t.	!	!LO:TX:a:t=t.	!	!	!	!	!	!LO:TX:a:t=t	!LO:TX:a:t=t.
8BB-/	4	.	4r	.	4d/	.	4f/	.	8.b-/L	.	4ff\	.	4dd\	4ff\
8BB-/J	3	.	.	.	.	.	.	.	.	.	.	.	.	.
.	.	.	.	.	.	.	.	.	16b-/Jk	.	.	.	.	.
!	!	!	!LO:LB:g=original	!	!	!	!	!	!	!	!	!	!	!
=17	=17	=17	=17	=17	=17	=17	=17	=17	=17	=17	=17	=17	=17	=17
!	!	!	!LO:TX:t=P:problem=brak taktu	!	!	!	!	!	!	!	!	!	!	!
4EE-/	.	.	2ryy	.	8e-/L|	.	8e-/L|	.	4g/	.	4ee-\	.	8ee-\L|	8ee-\L|
.	.	.	.	.	8B-/J|	.	8B-/J|	.	.	.	.	.	8b-\J|	8b-\J|
4r	.	.	.	.	4G/|	.	4G/	.	4r	.	8r	.	4e-/	4e-/
!	!	!	!	!	!	!	!	!	!	!	!LO:TX:b:t=solo.	!	!	!
.	.	.	.	.	.	.	.	.	.	.	16.gg\LL	.	.	.
.	.	.	.	.	.	.	.	.	.	.	32aa-\JJk	.	.	.
=18	=18	=18	=18	=18	=18	=18	=18	=18	=18	=18	=18	=18	=18	=18
!LO:TX:a:t=P:problem=mixed beam	!	!LO:DY:b:t=pia&colon;	!LO:TX:a:t=P:problem=mixed beam	!LO:DY:b:t=pia&colon;	!	!LO:DY:b:t=pia&colon;	!	!LO:DY:b:t=pia&colon;	!LO:TX:a:t=13.	!	!	!	!LO:TX:a:t=7.	!LO:TX:a:t=5.
8E-\L	.	p	8E-\L	p	8g/L	p	8b-\L	p	0r	.	8bb-\L	.	0r	0r
8E-\	.	.	8E-\	.	8g/	.	8b-\	.	.	.	16.gg\L	.	.	.
.	.	.	.	.	.	.	.	.	.	.	32aa-\JJk	.	.	.
8E-\	.	.	8E-\	.	8g/	.	8b-\	.	.	.	8bb-\L	.	.	.
8AA-/J	.	.	8AA-/J	.	8a-/J	.	8cc\J	.	.	.	8ccc\J	.	.	.
=19	=19	=19	=19	=19	=19	=19	=19	=19	=19	=19	=19	=19	=19	=19
8E-\L	6 4	.	8E-\L	.	8a-/L	.	8cc\L	.	.	.	8ccc\L	.	.	.
8E-\	5 3	.	8E-\	.	8g/	.	8b-\	.	.	.	8bb-\J	.	.	.
8G\	6	.	8G\	.	8e-/	.	8b-\	.	.	.	8r	.	.	.
8G\J	.	.	8G\J	.	8e-/J	.	8b-\J	.	.	.	16eee-\LL	.	.	.
.	.	.	.	.	.	.	.	.	.	.	16ccc\JJ	.	.	.
!	!	!	!	!	!LO:LB:g=original	!	!	!	!	!	!	!	!	!
=20	=20	=20	=20	=20	=20	=20	=20	=20	=20	=20	=20	=20	=20	=20
.	.	.	.	.	.	.	.	.	.	.	8qqbb-/	.	.	.
!LO:TX:a:t=P:problem=mixed beam	!	!	!LO:TX:a:t=P:problem=mixed beam	!	!	!	!	!	!	!	!	!	!	!
8F\L	.	.	8F\L	.	8c/L	.	8a-/L	.	.	.	4.aa-\	.	.	.
8BB-/	7	.	8BB-/	.	8d/	.	8a-/	.	.	.	.	.	.	.
8C/	6	.	8C/	.	8e-/	.	8a-/	.	.	.	.	.	.	.
8D/J	6 5	.	8D/J	.	8f/J	.	8a-/J	.	.	.	16gg\LL	.	.	.
.	.	.	.	.	.	.	.	.	.	.	16ff\JJ	.	.	.
=21	=21	=21	=21	=21	=21	=21	=21	=21	=21	=21	=21	=21	=21	=21
8E-\L	.	.	8E-\L	.	8B-/L	.	8g/L	.	.	.	16gg\LL	.	.	.
.	.	.	.	.	.	.	.	.	.	.	16aa-\JJ	.	.	.
8E-\	.	.	8E-\	.	8B-/	.	8g/	.	.	.	4bb-\	.	.	.
8G\	6	.	8G\	.	8e-/	.	8b-/	.	.	.	.	.	.	.
8G\J	.	.	8G\J	.	8e-/J	.	8b-/J	.	.	.	16eee-\LL	.	.	.
.	.	.	.	.	.	.	.	.	.	.	16ccc\JJ	.	.	.
=22	=22	=22	=22	=22	=22	=22	=22	=22	=22	=22	=22	=22	=22	=22
.	.	.	.	.	.	.	.	.	.	.	8qqbb-/	.	.	.
!LO:TX:a:t=P:problem=mixed beam	!	!	!LO:TX:a:t=P:problem=mixed beam	!	!	!	!	!	!	!	!	!	!	!
8F\L	.	.	8F\L	.	8c/L	.	8a-/L	.	0r	.	4.aa-\	.	1r	2r
8BB-/	7	.	8BB-/	.	8d/	.	8a-/	.	.	.	.	.	.	.
8C/	6	.	8C/	.	8e-/	.	8a-/	.	.	.	.	.	.	.
8D/J	6 5	.	8D/J	.	8f/J	.	8a-/J	.	.	.	16gg\LL	.	.	.
.	.	.	.	.	.	.	.	.	.	.	16ff\JJ	.	.	.
=23	=23	=23	=23	=23	=23	=23	=23	=23	=23	=23	=23	=23	=23	=23
!	!	!	!	!	!	!	!	!	!	!	!	!	!	!LO:TX:b:t=solo.
!	!	!	!	!	!	!	!	!	!	!	!	!	!	!LO:TX:a:t=P:problem=mixed beam
8E-\L	3	.	8E-\L	.	8B-/L	.	8g/L	.	.	.	16gg\LL	.	.	8g/L
.	.	.	.	.	.	.	.	.	.	.	16ff\J	.	.	.
8E-\	6	.	8E-\	.	8e-/	.	8g/	.	.	.	8ee-\J	.	.	16.ee-\L
.	.	.	.	.	.	.	.	.	.	.	.	.	.	32cc\JJk
8D\	6	.	8D\	.	8f/	.	8f/	.	.	.	4r	.	.	8b-/L
8C\J	n6r	.	8C\J	.	8f/J	.	8e-/J	.	.	.	.	.	.	8an/J
=24	=24	=24	=24	=24	=24	=24	=24	=24	=24	=24	=24	=24	=24	=24
!	!	!	!	!	!	!	!	!	!	!	!LO:TX:a:t=7.	!	!	!LO:TUP:a:t=P:problem=klamra łukowa
8BB-\L	.	.	8BB-\L	.	8f/L	.	8d/L	.	.	.	0r	.	2r	24b-\LL
.	.	.	.	.	.	.	.	.	.	.	.	.	.	24cc\
.	.	.	.	.	.	.	.	.	.	.	.	.	.	24dd\JJ
!	!	!	!	!	!	!	!	!	!	!	!	!	!	!LO:TUP:a:t=P:problem=klamra łukowa
8E-\	6	.	8E-\	.	8e-/	.	8g/	.	.	.	.	.	.	24ee-\LL
.	.	.	.	.	.	.	.	.	.	.	.	.	.	24dd\
.	.	.	.	.	.	.	.	.	.	.	.	.	.	24cc\JJ
8D\	6	.	8D\	.	8f/	.	8f/	.	.	.	.	.	.	8b-/L
!	!	!	!	!	!	!	!	!	!	!	!	!	!	!LO:TX:a:t=t.
8C\J	n6r	.	8C\J	.	8f/J	.	8e-/J	.	.	.	.	.	.	8an/J
!LO:LB:g=original	!	!	!	!	!	!	!	!	!	!	!	!	!	!
=25	=25	=25	=25	=25	=25	=25	=25	=25	=25	=25	=25	=25	=25	=25
4BB-/	.	.	4BB-/	.	4f/	.	4d/	.	.	.	.	.	(16b-\LL	(16b-\LL
.	.	.	.	.	.	.	.	.	.	.	.	.	16gg\)	16bb-\)
.	.	.	.	.	.	.	.	.	.	.	.	.	16ff\	16aan\
.	.	.	.	.	.	.	.	.	.	.	.	.	16ee-\JJ	16gg\JJ
8r	.	.	8r	.	4r	.	4r	.	.	.	.	.	8dd\L	8ff\L
8E-\	6	.	8E-\	.	.	.	.	.	.	.	.	.	8cc\J	8ee-\J
=26	=26	=26	=26	=26	=26	=26	=26	=26	=26	=26	=26	=26	=26	=26
!	!	!	!	!	!LO:TX:a:t=4.	!	!LO:TX:a:t=4.	!	!	!	!	!	!	!
8F\L	6 4	.	8F\L	.	0r	.	0r	.	0r	.	.	.	4b-/	4dd\
16.D\L	.	.	16.D\L	.	.	.	.	.	.	.	.	.	.	.
32E-\JJk	.	.	32E-\JJk	.	.	.	.	.	.	.	.	.	.	.
!LO:TX:a:t=P:problem=mixed beam	!	!	!LO:TX:a:t=P:problem=mixed beam	!	!	!	!	!	!	!	!	!	!LO:TX:a:t=t.	!LO:TX:a:t=t.
8F\L	7 n	.	8F\L	.	.	.	.	.	.	.	.	.	4an/	4cc\
8FF/J	.	.	8FF/J	.	.	.	.	.	.	.	.	.	.	.
=27	=27	=27	=27	=27	=27	=27	=27	=27	=27	=27	=27	=27	=27	=27
4BB-/	.	.	4BB-/	.	.	.	.	.	.	.	.	.	8b-/L|	(16dd\LL
.	.	.	.	.	.	.	.	.	.	.	.	.	.	16cc\)
.	.	.	.	.	.	.	.	.	.	.	.	.	8an/|	(16cc\
.	.	.	.	.	.	.	.	.	.	.	.	.	.	16ee-\JJ)
4r	.	.	4r	.	.	.	.	.	.	.	.	.	8g/|	(16ee-\LL
.	.	.	.	.	.	.	.	.	.	.	.	.	.	16dd\)
.	.	.	.	.	.	.	.	.	.	.	.	.	8f/J|	(16dd\
.	.	.	.	.	.	.	.	.	.	.	.	.	.	16gg\JJ)
=28	=28	=28	=28	=28	=28	=28	=28	=28	=28	=28	=28	=28	=28	=28
4r	.	.	4r	.	.	.	.	.	.	.	1r	.	8e-/L|	(16gg\LL
.	.	.	.	.	.	.	.	.	.	.	.	.	.	16ff\)
.	.	.	.	.	.	.	.	.	.	.	.	.	8d/|	(16ff\
.	.	.	.	.	.	.	.	.	.	.	.	.	.	16bb-\JJ)
8r	.	.	8r	.	.	.	.	.	.	.	.	.	8c/|	(16aan\LL
.	.	.	.	.	.	.	.	.	.	.	.	.	.	16gg\)
8F\	7 n	.	8F\	.	.	.	.	.	.	.	.	.	8an/J|	(16ff\
.	.	.	.	.	.	.	.	.	.	.	.	.	.	16ee-\JJ)
!	!	!	!	!	!	!	!	!	!	!	!	!	!	!LO:LB:g=original
=29	=29	=29	=29	=29	=29	=29	=29	=29	=29	=29	=29	=29	=29	=29
8G\L	5	.	8G\L	.	.	.	.	.	.	.	.	.	4b-/	4dd\
16.D\L	6	.	16.D\L	.	.	.	.	.	.	.	.	.	.	.
32E-\JJk	.	.	32E-\JJk	.	.	.	.	.	.	.	.	.	.	.
!LO:TX:a:t=P:problem=mixed beam	!	!	!LO:TX:a:t=P:problem=mixed beam	!	!	!	!	!	!	!	!	!	!LO:TX:a:t=t	!LO:TX:a:t=t.
8F\L	n	.	8F\L	.	.	.	.	.	.	.	.	.	4an/	4cc\
8FF/J	.	.	8FF/J	.	.	.	.	.	.	.	.	.	.	.
=30	=30	=30	=30	=30	=30	=30	=30	=30	=30	=30	=30	=30	=30	=30
!LO:TX:a:t=P:problem=mixed beam	!	!	!LO:TX:a:t=P:problem=mixed beam	!	!	!	!	!	!	!	!	!	!	!
16BB-/LL	.	.	16BB-/LL	.	4r	.	4r	.	2r	.	2r	.	4b-/	4b-/
!	!	!LO:DY:b:t=for&colon;	!	!LO:DY:b:t=for	!	!	!	!	!	!	!	!	!	!
16B-\|	.	f	16B-\|	f	.	.	.	.	.	.	.	.	.	.
16An\|	.	.	16An\|	.	.	.	.	.	.	.	.	.	.	.
16G\JJ|	.	.	16G\JJ|	.	.	.	.	.	.	.	.	.	.	.
16F\LL|	.	.	16F\LL|	.	8r	.	8r	.	.	.	.	.	4r	4r
16E-\|	.	.	16E-\|	.	.	.	.	.	.	.	.	.	.	.
!	!	!	!	!	!	!	!	!LO:DY:b:t=for	!	!	!	!	!	!
16D\|	.	.	16D\|	.	16.b-\LL	.	16.dd\LL	f	.	.	.	.	.	.
16C\JJ|	.	.	16C\JJ|	.	.	.	.	.	.	.	.	.	.	.
.	.	.	.	.	32cc\JJk	.	32ee-\JJk	.	.	.	.	.	.	.
!	!	!	!	!	!	!	!LO:LB:g=original	!	!	!	!	!	!	!
=31	=31	=31	=31	=31	=31	=31	=31	=31	=31	=31	=31	=31	=31	=31
!LO:TX:a:t=P:problem=mixed beam	!	!	!LO:TX:a:t=P:problem=mixed beam	!	!	!	!	!	!	!	!	!	!LO:TX:a:t=1.	!LO:TX:a:t=1.
8BB-/L	.	.	8BB-/L	.	8dd\L	.	8ff\L	.	4.b-/	.	4.ff\	.	2r	2r
8BB-/	.	.	8BB-/	.	16.b-\L	.	16.dd\L	.	.	.	.	.	.	.
.	.	.	.	.	32cc\JJk	.	32ee-\JJk	.	.	.	.	.	.	.
8BB-/	.	.	8BB-/	.	8dd\L	.	8ff\L	.	.	.	.	.	.	.
8E-\J	.	.	8E-\J	.	8ee-\J	.	8gg\J	.	8ee-\	.	8gg\	.	.	.
=32	=32	=32	=32	=32	=32	=32	=32	=32	=32	=32	=32	=32	=32	=32
.	.	.	.	.	8qqff/	.	8qqaa-/	.	.	.	8qqaa-/	.	.	.
!LO:TX:a:t=P:problem=mixed beam	!	!	!LO:TX:a:t=P:problem=mixed beam	!	!	!	!	!	!LO:TX:a:t=P:problem=mixed beam	!	!	!	!	!
8B-\L	6 4	.	8B-\L	.	8ee-\L	.	8gg\L	.	8ee-\L	.	8gg\L	.	4r	4r
8BB-/J	5 3	.	8BB-/J	.	8dd\J	.	8ff\J	.	8b-/J	.	8ff\J	.	.	.
!	!	!	!LO:LB:g=original	!LO:DY:b:t=pia	!	!	!	!	!	!	!	!	!	!
16r	.	.	16r	p	4r	.	4r	.	4r	.	4r	.	4ff\	4aa-\
!	!	!LO:DY:b:t=pia&colon;	!	!	!	!	!	!	!	!	!	!	!	!
16F\LL|	6 n4r -3r	p	16F\LL|	.	.	.	.	.	.	.	.	.	.	.
16D\|	.	.	16D\|	.	.	.	.	.	.	.	.	.	.	.
16BBn\JJ|	.	.	16BBn\JJ|	.	.	.	.	.	.	.	.	.	.	.
=33	=33	=33	=33	=33	=33	=33	=33	=33	=33	=33	=33	=33	=33	=33
!	!	!	!	!	!LO:TX:a:t=3.	!	!LO:TX:a:t=3.	!	!	!LO:DY:b:t=pia&colon;	!	!LO:DY:b:t=pia	!	!
4C/	.	.	4C/	.	1r	.	1r	.	8g/L	p	8g/L	p	16ee-\LL|	16gg\LL|
.	.	.	.	.	.	.	.	.	.	.	.	.	(16ee-\	(16gg\
.	.	.	.	.	.	.	.	.	16.g/L	.	16.g/L	.	16dd\	16ff\
.	.	.	.	.	.	.	.	.	.	.	.	.	16cc\JJ)	16ee-\JJ)
.	.	.	.	.	.	.	.	.	32g/JJk	.	32g/JJk	.	.	.
!LO:TX:a:t=P:problem=mixed beam	!	!	!LO:TX:a:t=P:problem=mixed beam	!	!	!	!	!	!	!	!	!	!LO:TX:b:t=Solo.	!LO:TX:b:t=Solo.
8G\L	7 n	.	8G\L	.	.	.	.	.	16g/LL	.	16g/LL	.	16dd\LL|	16ff\LL|
.	.	.	.	.	.	.	.	.	16g/	.	16g/	.	(16dd\	(16ff\
8GG/J	.	.	8GG/J	.	.	.	.	.	16g/	.	16g/	.	16cc\	16ee-\
.	.	.	.	.	.	.	.	.	16g/JJ	.	16g/JJ	.	16bn\JJ)	16dd\JJ)
=34	=34	=34	=34	=34	=34	=34	=34	=34	=34	=34	=34	=34	=34	=34
4C/	.	.	4C/	.	.	.	.	.	4g/	.	4g/	.	16cc\LL	16ee-\LL
.	.	.	.	.	.	.	.	.	.	.	.	.	16dd\J	16dd\J
.	.	.	.	.	.	.	.	.	.	.	.	.	8ee-\J	8cc\J
!LO:LB:g=original	!	!	!	!	!	!	!	!	!	!	!	!	!	!
16r	6 n4r 3	.	16r	.	.	.	.	.	4r	.	4r	.	4ee-\	4gg\
16E-\LL|	.	.	16E-\LL|	.	.	.	.	.	.	.	.	.	.	.
16C\|	.	.	16C\|	.	.	.	.	.	.	.	.	.	.	.
16AAn\JJ|	.	.	16AAn\JJ|	.	.	.	.	.	.	.	.	.	.	.
!	!	!	!	!	!	!	!	!	!	!	!LO:LB:g=original	!	!	!
=35	=35	=35	=35	=35	=35	=35	=35	=35	=35	=35	=35	=35	=35	=35
4BB-/	.	.	4BB-/	.	2r	.	2r	.	8ff\L	.	8ff\L	.	16dd\LL|	16ff\LL|
.	.	.	.	.	.	.	.	.	.	.	.	.	(16dd\	(16ff\
.	.	.	.	.	.	.	.	.	16.ff\L	.	16.ff\L	.	16cc\	16ee-\
.	.	.	.	.	.	.	.	.	.	.	.	.	16b-\JJ)	16dd\JJ)
.	.	.	.	.	.	.	.	.	32ff\JJk	.	32ff\JJk	.	.	.
!	!	!	!	!	!	!	!	!	!	!	!	!	!LO:LB:g=original	!
!LO:TX:a:t=P:problem=mixed beam	!	!	!LO:TX:a:t=P:problem=mixed beam	!	!	!	!	!	!	!	!	!	!	!
8F\L	7 n	.	8F\L	.	.	.	.	.	16ff\LL	.	16ff\LL|	.	16cc\LL	16ee-\LL
.	.	.	.	.	.	.	.	.	16ff\	.	16ff\	.	(16cc\	(16ee-\
8FF/J	.	.	8FF/J	.	.	.	.	.	16ff\	.	16ff\	.	16b-\	16dd\
.	.	.	.	.	.	.	.	.	16ff\JJ	.	16ff\JJ	.	16an\JJ)	16cc\JJ)
=36	=36	=36	=36	=36	=36	=36	=36	=36	=36	=36	=36	=36	=36	=36
4BB-/	.	.	4BB-/	.	8r	.	8r	.	4b-/	.	4ff\	.	16b-\LL	16dd\LL
.	.	.	.	.	.	.	.	.	.	.	.	.	16cc\J	16cc\J
!	!	!	!	!	!	!LO:DY:b:t=pia&colon;	!	!	!	!	!	!	!	!
.	.	.	.	.	16b-\LL|	p	16dd\LL|	.	.	.	.	.	8dd\J	8b-\J
.	.	.	.	.	16cc\JJ|	.	16ee-\JJ|	.	.	.	.	.	.	.
!	!	!	!	!	!	!	!	!LO:DY:b:t=pia	!	!	!	!	!	!
4r	.	.	4r	.	16b-/LL|	.	16dd\LL|	p	8r	.	8r	.	4r	4r
.	.	.	.	.	16a-/|	.	16cc\|	.	.	.	.	.	.	.
!	!	!	!	!	!	!	!	!	!LO:TX:b:t=solo.	!	!LO:TX:b:t=Solo.	!	!	!
.	.	.	.	.	16g/|	.	16b-\|	.	16.ee-\LL	.	16.gg\LL	.	.	.
.	.	.	.	.	16f/JJ|	.	16a-\JJ|	.	.	.	.	.	.	.
.	.	.	.	.	.	.	.	.	32ff\JJk	.	32aa-\JJk	.	.	.
=37	=37	=37	=37	=37	=37	=37	=37	=37	=37	=37	=37	=37	=37	=37
!LO:TX:a:t=3.	!	!	!LO:TX:a:t=3.	!	!	!	!	!	!	!	!	!	!LO:TX:a:t=3.	!LO:TX:a:t=3.
1r	.	.	1r	.	4e-/	.	4g/	.	8gg\L	.	8bb-\L	.	1r	1r
.	.	.	.	.	.	.	.	.	16.ee-\L	.	16.gg\L	.	.	.
.	.	.	.	.	.	.	.	.	32ff\JJk	.	32aa-\JJk	.	.	.
.	.	.	.	.	8r	.	8r	.	8gg\L	.	8bb-\L	.	.	.
.	.	.	.	.	8c/	.	8e-/	.	8aa-\J	.	8ccc\J	.	.	.
=38	=38	=38	=38	=38	=38	=38	=38	=38	=38	=38	=38	=38	=38	=38
.	.	.	.	.	4d/	.	4f/	.	8ff\L	.	8aa-\L	.	.	.
.	.	.	.	.	.	.	.	.	16.b-\L	.	16.ff\L	.	.	.
.	.	.	.	.	.	.	.	.	32ee-\JJk	.	32gg\JJk	.	.	.
.	.	.	.	.	8r	.	8r	.	8ff\L	.	8aa-\L	.	.	.
.	.	.	.	.	8B-/	.	8d/	.	8gg\J	.	8bb-\J	.	.	.
=39	=39	=39	=39	=39	=39	=39	=39	=39	=39	=39	=39	=39	=39	=39
2r	.	.	2r	.	4c/	.	4e-/	.	8ee-\L	.	8gg\L	.	2r	2r
.	.	.	.	.	.	.	.	.	16.g\L	.	16.ee-\L	.	.	.
.	.	.	.	.	.	.	.	.	32b-\JJk	.	32ff\JJk	.	.	.
!	!	!	!	!	!	!	!	!	!LO:LB:g=original	!	!	!	!	!
.	.	.	.	.	8r	.	8r	.	8ee-\L	.	8gg\L	.	.	.
.	.	.	.	.	8A-/	.	8c/	.	8ff\J	.	8aa-\J	.	.	.
=40	=40	=40	=40	=40	=40	=40	=40	=40	=40	=40	=40	=40	=40	=40
.	.	.	.	.	.	.	.	.	8qqff/	.	.	.	.	.
8r	.	.	8r	.	4B-/	.	4B-/	.	16ee-\LL	.	(16gg\LL	.	4r	4r
.	.	.	.	.	.	.	.	.	16b-\J	.	16ff\J)	.	.	.
16.B-\LL	.	.	16.B-\LL	.	.	.	.	.	8b-\J	.	8ff\J	.	.	.
32c\JJk	.	.	32c\JJk	.	.	.	.	.	.	.	.	.	.	.
16B-\LL|	.	.	16B-\LL|	.	4r	.	4r	.	4r	.	4r	.	8r	8r
16A-\|	.	.	16A-\|	.	.	.	.	.	.	.	.	.	.	.
!	!	!	!	!	!	!	!	!	!	!	!	!	!LO:TX:b:t=solo	!LO:TX:b:t=solo
16G\|	.	.	16G\|	.	.	.	.	.	.	.	.	.	16.g/LL	16.ee-\LL
16F\JJ|	.	.	16F\JJ|	.	.	.	.	.	.	.	.	.	.	.
.	.	.	.	.	.	.	.	.	.	.	.	.	32a-/JJk	32ff\JJk
!	!	!	!	!	!LO:LB:g=original	!	!	!	!	!	!	!	!	!
=41	=41	=41	=41	=41	=41	=41	=41	=41	=41	=41	=41	=41	=41	=41
!	!	!	!	!	!LO:TX:a:t=3.	!	!LO:TX:a:t=3.	!	!LO:TX:a:t=3.	!	!LO:TX:a:t=3.	!	!	!
4E-\	.	.	4E-\	.	1r	.	1r	.	1r	.	1r	.	8b-/L	8gg\L
.	.	.	.	.	.	.	.	.	.	.	.	.	16.g/L	16.ee-\L
.	.	.	.	.	.	.	.	.	.	.	.	.	32a-/JJk	32ff\JJk
8r	.	.	8r	.	.	.	.	.	.	.	.	.	8b-\L	8gg\L
8C/	6	.	8C/	.	.	.	.	.	.	.	.	.	8cc\J	8aa-\J
=42	=42	=42	=42	=42	=42	=42	=42	=42	=42	=42	=42	=42	=42	=42
4D/	.	.	4D/	.	.	.	.	.	.	.	.	.	8a-/L	8ff\L
.	.	.	.	.	.	.	.	.	.	.	.	.	16.f/L	16.dd\L
.	.	.	.	.	.	.	.	.	.	.	.	.	32g/JJk	32ee-\JJk
8r	.	.	8r	.	.	.	.	.	.	.	.	.	8a-/L	8ff\L
8BB-/	6	.	8BB-/	.	.	.	.	.	.	.	.	.	8b-/J	8gg\J
=43	=43	=43	=43	=43	=43	=43	=43	=43	=43	=43	=43	=43	=43	=43
4C/	.	.	4C/	.	2r	.	2r	.	2r	.	2r	.	8g/L	8ee-\L
.	.	.	.	.	.	.	.	.	.	.	.	.	16.e-/L	16.cc\L
.	.	.	.	.	.	.	.	.	.	.	.	.	32f/JJk	32dd\JJk
8r	.	.	8r	.	.	.	.	.	.	.	.	.	8g/L	8ee-\L
8AA-/	6	.	8AA-/	.	.	.	.	.	.	.	.	.	8a-/J	8ff\J
=44	=44	=44	=44	=44	=44	=44	=44	=44	=44	=44	=44	=44	=44	=44
!LO:TX:a:t=P:problem=mixed beam	!	!	!LO:TX:a:t=P:problem=mixed beam	!	!	!	!	!	!	!	!	!	!	!
8C/L	6 4	.	8BB-/L	.	4r	.	4r	.	4r	.	4r	.	(16g/LL	(16ee-\LL
.	.	.	.	.	.	.	.	.	.	.	.	.	16f/JJ)	16dd\JJ)
16.B-\L	5 3	.	16.B-\L	.	.	.	.	.	.	.	.	.	4f/	4dd\
!	!	!LO:DY:b:t=for	!	!	!	!	!	!	!	!	!	!	!	!
!	!	!	!	!LO:DY:b:t=for&colon;	!	!	!	!	!	!	!	!	!	!
32c\JJk	.	f	32c\JJk	f	.	.	.	.	.	.	.	.	.	.
16B-\LL|	.	.	16B-\LL|	.	8r	.	8r	.	8r	.	8r	.	.	.
16A-\|	.	.	16A-\|	.	.	.	.	.	.	.	.	.	.	.
!	!	!	!	!	!	!	!	!	!	!	!	!	!	!LO:LB:g=original
!	!	!	!	!	!	!LO:DY:b:t=for&colon;	!	!LO:DY:b:t=for	!	!	!	!	!	!LO:TX:b:t=tutti
16G\|	.	.	16G\|	.	16.e-/LL	f	16.g/LL	f	16.ee-\LL	.	16.gg\LL	.	16.e-/LL	16.g/LL
16F\JJ|	.	.	16F\JJ|	.	.	.	.	.	.	.	.	.	.	.
.	.	.	.	.	32f/JJk	.	32a-/JJk	.	32ff\JJk	.	32aa-\JJk	.	32f/JJk	32a-/JJk
=45	=45	=45	=45	=45	=45	=45	=45	=45	=45	=45	=45	=45	=45	=45
8E-\L	.	.	8E-\L	.	8g/L	.	8b-/L	.	8gg\L	.	8bb-\L	.	8g/L	8b-/L
8E-\J	.	.	8E-\	.	16.e-/L	.	16.g/L	.	16.ee-\L	.	16.gg\L	.	16.e-/L	16.g/L
.	.	.	.	.	32f/JJk	.	32a-/JJk	.	32ff\JJk	.	32aa-\JJk	.	32f/JJk	32a-/JJk
!LO:LB:g=original	!	!	!	!	!	!	!	!	!	!	!	!	!	!
8E-\L	.	.	8E-\	.	8g/L	.	8b-\L	.	8gg\L	.	8bb-\L	.	8g/L	8b-\L
8AA-/J	.	.	8AA-\J	.	8a-/J	.	8cc\J	.	8aa-\J	.	8ccc\J	.	8a-/J	8cc\J
=46	=46	=46	=46	=46	=46	=46	=46	=46	=46	=46	=46	=46	=46	=46
.	.	.	.	.	8qqb-/	.	8qqdd/	.	8qqbb-/	.	.	.	8qqb-/	8qqdd/
!LO:TX:a:t=P:problem=mixed beam	!	!	!LO:TX:a:t=P:problem=mixed beam	!	!	!	!	!	!	!	!	!	!	!
8E-\L	6 4	.	8E-\L	.	8a-/L	.	8cc\L	.	8aa-\L	.	8ccc\L	.	8a-/L	8cc\L
8EE-/J	5 3	.	8EE-/J	.	8g/J	.	8b-\J	.	8gg\J	.	8bb-\J	.	8g/J	8b-\J
8r	.	.	8r	.	4gg\	.	4bb-\	.	8r	.	8r	.	4gg\	4bb-\
8E-\	.	.	8E-\	.	.	.	.	.	8gg\	.	8bb-\	.	.	.
=47	=47	=47	=47	=47	=47	=47	=47	=47	=47	=47	=47	=47	=47	=47
.	.	.	.	.	.	.	.	.	8qqgg/	.	8qqbb-/	.	.	.
!LO:TX:a:t=P:problem=mixed beam	!	!	!LO:TX:a:t=P:problem=mixed beam	!	!	!	!	!	!	!	!	!	!	!
8B-\L	7	.	8B-\L	.	(32ff\KLL	.	(32aa-\KLL	.	4.ff\	.	4.aa-\	.	(32ff\KLL	(32aa-\KLL
.	.	.	.	.	16.ee-\JJ)	.	16.gg\JJ)	.	.	.	.	.	16.ee-\JJ)	16.gg\JJ)
8BB-/	.	.	8BB-/	.	(32dd\KLL	.	(32ff\KLL	.	.	.	.	.	(32dd\KLL	(32ff\KLL
.	.	.	.	.	16.cc\JJ)	.	16.ee-\JJ)	.	.	.	.	.	16.cc\JJ)	16.ee-\JJ)
!	!	!	!	!	!	!	!LO:LB:g=original	!	!	!	!	!	!	!
8BB-/	.	.	8BB-/	.	(32b-/KLL	.	(32dd\KLL	.	.	.	.	.	(32b-/KLL	(32dd\KLL
.	.	.	.	.	16.a-/JJ)	.	16.cc\JJ)	.	.	.	.	.	16.a-/JJ)	16.cc\JJ)
8BB-/J	.	.	8BB-/J	.	(32g/KLL	.	(32b-/KLL	.	8ff\	.	8aa-\	.	(32g/KLL	(32b-/KLL
.	.	.	.	.	16.f/JJ)	.	16.a-/JJ)	.	.	.	.	.	16.f/JJ)	16.a-/JJ)
!	!	!	!LO:LB:g=original	!	!	!	!	!	!	!	!LO:LB:g=original	!	!	!
=48	=48	=48	=48	=48	=48	=48	=48	=48	=48	=48	=48	=48	=48	=48
!LO:TX:a:t=P:problem=mixed beam	!	!	!LO:TX:a:t=P:problem=mixed beam	!	!	!	!	!	!	!	!	!	!	!
8E-\L	.	.	8E-\L	.	16e-/LL	.	16g/LL	.	16ee-\LL	.	16gg\LL	.	16e-/LL	16g/LL
.	.	.	.	.	16f/J	.	16a-/J	.	16ff\J	.	16aa-\J	.	16f/J	16a-/J
8EE-/J	.	.	8EE-/J	.	8g/J	.	8b-/J	.	8gg\J	.	8bb-\J	.	8g/J	8b-/J
8r	.	.	8r	.	4gg\	.	4bb-\	.	8r	.	8r	.	4gg\	4bb-\
8E-\	.	.	8E-\	.	.	.	.	.	8gg\	.	8bb-\	.	.	.
=49	=49	=49	=49	=49	=49	=49	=49	=49	=49	=49	=49	=49	=49	=49
.	.	.	.	.	.	.	.	.	8qqgg/	.	8qqbb-/	.	.	.
!LO:TX:a:t=P:problem=mixed beam	!	!	!LO:TX:a:t=P:problem=mixed beam	!	!	!	!	!	!	!	!	!	!	!
8B-\L	7	.	8B-\L	.	(32ff\KLL	.	(32aa-\KLL	.	4.ff\	.	4.aa-\	.	(32ff\KLL	(32aa-\KLL
.	.	.	.	.	16.ee-\JJ)	.	16.gg\JJ)	.	.	.	.	.	16.ee-\JJ)	16.gg\JJ)
8BB-/	.	.	8BB-/	.	(32dd\KLL	.	(32ff\KLL	.	.	.	.	.	(32dd\KLL	(32ff\KLL
.	.	.	.	.	16.cc\JJ)	.	16.ee-\JJ)	.	.	.	.	.	16.cc\JJ)	16.ee-\JJ)
!	!	!	!	!	!	!	!	!	!	!	!	!	!LO:LB:g=original	!
8BB-/	.	.	8BB-/	.	(32b-/KLL	.	(32dd\KLL	.	.	.	.	.	(32b-/KLL	(32dd\KLL
.	.	.	.	.	16.a-/JJ)	.	16.cc\JJ)	.	.	.	.	.	16.a-/JJ)	16.cc\JJ)
8BB-/J	.	.	8BB-/J	.	(32g/KLL	.	(32b-/KLL	.	8ff\	.	8aa-\	.	(32g/KLL	(32b-/KLL
.	.	.	.	.	16.f/JJ)	.	16.a-/JJ)	.	.	.	.	.	16.f/JJ)	16.a-/JJ)
=50	=50	=50	=50	=50	=50	=50	=50	=50	=50	=50	=50	=50	=50	=50
!	!	!	!	!	!	!	!LO:TUP:b:t=P:problem=klamra łukowa	!	!	!	!	!	!	!LO:TUP:b:t=P:problem=klamra łukowa
8E-\L	3	.	8E-\L	.	8e-/L	.	24g/LL	.	4ee-\	.	4gg\	.	8e-/L	24g/LL
.	.	.	.	.	.	.	24an/	.	.	.	.	.	.	24an/
.	.	.	.	.	.	.	24b-/JJ	.	.	.	.	.	.	24b-/JJ
!	!	!	!	!	!	!	!LO:TUP:a:t=P:problem=klamra łukowa	!	!	!	!	!	!	!LO:TUP:a:t=P:problem=klamra łukowa
8E-\	6	.	8E-\	.	8g/	.	24ee-\LL	.	.	.	.	.	8g/	24ee-\LL
.	.	.	.	.	.	.	24dd\	.	.	.	.	.	.	24dd\
.	.	.	.	.	.	.	24cc\JJ	.	.	.	.	.	.	24cc\JJ
8D\	6	.	8D\	.	8f/	.	8b-/L	.	8r	.	8r	.	8f/	8b-/L
8BB-\J	n6r	.	8BB-\J	.	8e-/J	.	8an/J	.	8ff\	.	8aaX\	.	8e-/J	8an/J
=51	=51	=51	=51	=51	=51	=51	=51	=51	=51	=51	=51	=51	=51	=51
.	.	.	.	.	.	.	8qqcc/	.	.	.	.	.	.	8qqcc/
4BB-/	.	.	4BB-/	.	4d/	.	(16b-/LL	.	4ff\	.	4bb-\	.	4d/	(16b-/LL
.	.	.	.	.	.	.	16an/J)	.	.	.	.	.	.	16an/J)
.	.	.	.	.	.	.	8b-/J	.	.	.	.	.	.	8b-/J
.	.	.	.	.	.	.	8qqb-/	.	.	.	.	.	.	8qqb-/
16r	.	.	16r	.	4ff\	.	4aa-X\	.	8r	.	8r	.	4ff\	4aa-X\
16BB-/LL	-7r	.	16BB-/LL	.	.	.	.	.	.	.	.	.	.	.
16C/	.	.	16C/	.	.	.	.	.	8ff\	.	8aa-X\	.	.	.
16D/JJ	.	.	16D/JJ	.	.	.	.	.	.	.	.	.	.	.
=52	=52	=52	=52	=52	=52	=52	=52	=52	=52	=52	=52	=52	=52	=52
4E-\	.	.	4E-\	.	16ee-\KL	.	16gg\KL	.	4ee-\	.	4gg\	.	4ee-\	4gg\
!	!	!	!	!	!LO:TX:a:t=t.	!	!LO:TX:a:t=t.	!	!	!	!	!	!	!
.	.	.	.	.	8b-\	.	8gg\	.	.	.	.	.	.	.
.	.	.	.	.	32a-\LL	.	32ff\LL	.	.	.	.	.	.	.
.	.	.	.	.	32g\JJJ	.	32ee-\JJJ	.	.	.	.	.	.	.
!LO:TX:a:t=P:problem=mixed beam	!	!	!LO:TX:a:t=P:problem=mixed beam	!	!	!	!	!	!	!	!LO:TX:a:t=t.	!	!LO:TX:a:t=t	!LO:TX:a:t=t
8B-\L	7	.	8B-\L	.	16a-/KL	.	16ff\KL	.	4b-/	.	4ff\	.	4dd\	4ff\
!	!	!	!	!	!LO:TX:a:t=t.	!	!LO:TX:a:t=t.	!	!	!	!	!	!	!
.	.	.	.	.	8a-/	.	8ff\	.	.	.	.	.	.	.
8BB-/J	.	.	8BB-/J	.	.	.	.	.	.	.	.	.	.	.
.	.	.	.	.	32g/LL	.	32ee-\LL	.	.	.	.	.	.	.
.	.	.	.	.	32f/JJJ	.	32dd\JJJ	.	.	.	.	.	.	.
=53	=53	=53	=53	=53	=53	=53	=53	=53	=53	=53	=53	=53	=53	=53
!	!	!	!	!	!	!	!	!	!	!	!LO:TX:a:t=P:problem=mixed beam	!	!	!
4E-\	.	.	4E-\	.	8g/L	.	8ee-\L	.	8g/L	.	8ee-\L	.	4cc\	4ee-\
.	.	.	.	.	16.e-/L	.	16.g\L	.	16.e-/L	.	16.e-/L	.	.	.
.	.	.	.	.	32f/JJk	.	32a-\JJk	.	32e-/JJk	.	32e-/JJk	.	.	.
4r	.	.	4r	.	8g/L	.	8b-/L	.	4e-/	.	4e-/	.	8r	8r
!	!	!	!	!	!	!	!	!	!	!	!	!	!LO:TX:b:t=solo	!LO:TX:b:t=solo
.	.	.	.	.	8e-/J	.	8g/J	.	.	.	.	.	8e-/	8b-/
!	!	!	!	!	!LO:LB:g=original	!	!	!	!LO:LB:g=original	!	!	!	!	!
=54	=54	=54	=54	=54	=54	=54	=54	=54	=54	=54	=54	=54	=54	=54
!	!	!LO:DY:b:t=piano.	!	!	!	!LO:DY:b:t=pia&colon;	!	!LO:DY:b:t=pia	!LO:TX:a:t=8.	!	!LO:TX:a:t=8.	!	!	!
8A-\L|	.	p	8A-\L	.	4e-/	p	4cc\	p	0r	.	0r	.	(32f/KLL	(32cc\KLL
.	.	.	.	.	.	.	.	.	.	.	.	.	16.a-/JJ)	16.ee-\JJ)
8A-\|	.	.	8A-\	.	.	.	.	.	.	.	.	.	(32dd\KLL	(32aa-\KLL
.	.	.	.	.	.	.	.	.	.	.	.	.	16.cc\JJ)	16.gg\JJ)
!	!	!	!	!	!	!	!	!	!	!	!	!	!	!LO:LB:g=original
8A-\|	.	.	8A-\	.	4r	.	4r	.	.	.	.	.	(32b-/KLL	(32ff\KLL
.	.	.	.	.	.	.	.	.	.	.	.	.	16.a-/JJ)	16.ee-\JJ)
8A-\J|	.	.	8A-\J	.	.	.	.	.	.	.	.	.	(32g/KLL	(32dd\KLL
.	.	.	.	.	.	.	.	.	.	.	.	.	16.f/JJ)	16.cc\JJ)
!LO:LB:g=original	!	!	!	!	!	!	!LO:LB:g=original	!	!	!	!	!	!	!
=55	=55	=55	=55	=55	=55	=55	=55	=55	=55	=55	=55	=55	=55	=55
8D\L	7	.	8D\L	.	4f/	.	4cc\	.	.	.	.	.	8f/L	8cc\L
8D\	.	.	8D\	.	.	.	.	.	.	.	.	.	8d/J	8an\J
.	.	.	.	.	.	.	.	.	.	.	.	.	.	8qqa/
8D\	6	.	8D\	.	4r	.	4r	.	.	.	.	.	[4e-/	[4b-\
8D\J	.	.	8D\J	.	.	.	.	.	.	.	.	.	.	.
=56	=56	=56	=56	=56	=56	=56	=56	=56	=56	=56	=56	=56	=56	=56
8G\L	7	.	8G\L	.	4d/	.	4b-/	.	.	.	.	.	(32e-/KLL]	(32b-\KLL]
.	.	.	.	.	.	.	.	.	.	.	.	.	16.g/JJ)	16.dd\JJ)
8G\	.	.	8G\	.	.	.	.	.	.	.	.	.	(32cc\KLL	(32gg\KLL
.	.	.	.	.	.	.	.	.	.	.	.	.	16.b-\JJ)	16.ff\JJ)
8G\	6	.	8G\	.	4r	.	4r	.	.	.	.	.	(32a-/KLL	(32ee-\KLL
.	.	.	.	.	.	.	.	.	.	.	.	.	16.g/JJ)	16.dd\JJ)
8G\J	.	.	8G\J	.	.	.	.	.	.	.	.	.	(32f/KLL	(32cc\KLL
.	.	.	.	.	.	.	.	.	.	.	.	.	16.e-/JJ)	16.b-\JJ)
=57	=57	=57	=57	=57	=57	=57	=57	=57	=57	=57	=57	=57	=57	=57
8C/L	7	.	8C/L	.	4e-/	.	4b-/	.	.	.	.	.	8e-/L	8b-/L
8C/	.	.	8C/	.	.	.	.	.	.	.	.	.	8c/J	8g/J
.	.	.	.	.	.	.	.	.	.	.	.	.	.	8qqg/
8C/	6	.	8C/	.	4r	.	4r	.	.	.	.	.	4d/	[4a-/
8C/J	.	.	8C/J	.	.	.	.	.	.	.	.	.	.	.
=58	=58	=58	=58	=58	=58	=58	=58	=58	=58	=58	=58	=58	=58	=58
!LO:TX:a:t=P:problem=mixed beam	!	!	!LO:TX:a:t=P:problem=mixed beam	!	!	!	!	!	!	!	!	!	!LO:TX:t=P:problem=brak taktu	!
8F\L	7	.	8F\L	.	4r	.	4r	.	0r	.	0r	.	2ryy	(32a-\KLL]
.	.	.	.	.	.	.	.	.	.	.	.	.	.	16.cc\JJ)
8F\	.	.	8F\	.	.	.	.	.	.	.	.	.	.	(32ff\KLL
.	.	.	.	.	.	.	.	.	.	.	.	.	.	16.ee-\JJ)
8F\	6	.	8F\	.	8r	.	8r	.	.	.	.	.	.	(32dd\KLL
.	.	.	.	.	.	.	.	.	.	.	.	.	.	16.cc\JJ)
!	!	!LO:DY:b:t=for	!	!LO:DY:b:t=for	!	!LO:DY:b:t=for	!	!LO:DY:b:t=for	!	!	!	!	!	!
8BB-/J	7	f	8BB-/J	f	8dd\	f	8ff\	f	.	.	.	.	.	(32b-/KLL
.	.	.	.	.	.	.	.	.	.	.	.	.	.	16.a-/JJ)
=59	=59	=59	=59	=59	=59	=59	=59	=59	=59	=59	=59	=59	=59	=59
4E-\	.	.	4E-\	.	(32ee-\LLL	.	(32gg\LLL	.	.	.	.	.	4e-/	4g/
.	.	.	.	.	32ff\J	.	32aa-\J	.	.	.	.	.	.	.
.	.	.	.	.	16gg\JJ)	.	16bb-\JJ)	.	.	.	.	.	.	.
.	.	.	.	.	(16gg'\LL	.	(16bb-'\LL	.	.	.	.	.	.	.
.	.	.	.	.	16gg'\JJ)	.	16bb-'\JJ)	.	.	.	.	.	.	.
.	.	.	.	.	8qqgg/	.	8qqbb-/	.	.	.	.	.	.	.
16r	.	.	16r	.	4ff\	.	4aa-\	.	.	.	.	.	4r	4r
16D/LL	6 5	.	16D/LL	.	.	.	.	.	.	.	.	.	.	.
16C/	.	.	16C/	.	.	.	.	.	.	.	.	.	.	.
16BB-/JJ	.	.	16BB-/JJ	.	.	.	.	.	.	.	.	.	.	.
=60	=60	=60	=60	=60	=60	=60	=60	=60	=60	=60	=60	=60	=60	=60
!	!	!	!	!	!	!	!	!	!	!	!	!	!LO:TX:a:t=1.	!LO:TX:a:t=1.
4E-\	.	.	4E-\	.	(32ee-\LLL	.	(32gg\LLL	.	.	.	.	.	2r	2r
.	.	.	.	.	32ff\J	.	32aa-\J	.	.	.	.	.	.	.
.	.	.	.	.	16gg\JJ)	.	16bb-\JJ)	.	.	.	.	.	.	.
.	.	.	.	.	(16gg'\LL	.	(16bb-'\LL	.	.	.	.	.	.	.
.	.	.	.	.	16gg'\JJ)	.	16bb-'\JJ)	.	.	.	.	.	.	.
.	.	.	.	.	8qqgg/	.	8qqbb-/	.	.	.	.	.	.	.
16r	.	.	16r	.	4ff\	.	4aa-\	.	.	.	.	.	.	.
16D/LL	6 5	.	16D/LL	.	.	.	.	.	.	.	.	.	.	.
16C/	.	.	16C/	.	.	.	.	.	.	.	.	.	.	.
16BB-/JJ	.	.	16BB-/JJ	.	.	.	.	.	.	.	.	.	.	.
!	!	!	!LO:LB:g=original	!	!	!	!	!	!	!	!	!	!	!
=61	=61	=61	=61	=61	=61	=61	=61	=61	=61	=61	=61	=61	=61	=61
!LO:TX:a:t=P:problem=mixed beam	!	!	!LO:TX:a:t=P:problem=mixed beam	!	!	!	!	!	!	!	!	!	!	!
8E-\L	.	.	8E-\L	.	(16ee-\LL	.	(16gg\LL	.	.	.	.	.	4r	4r
.	.	.	.	.	16dd\	.	16ff\	.	.	.	.	.	.	.
8A-\	7 5	.	8A-\	.	16ee-\)	.	16gg\)	.	.	.	.	.	.	.
.	.	.	.	.	16ff\JJ|	.	16aa-\JJ|	.	.	.	.	.	.	.
!	!	!	!	!	!	!	!LO:TX:a:t=t.	!	!	!	!	!	!	!
.	.	.	.	.	8qqee-/	.	8qqgg/	.	.	.	.	.	.	.
!	!	!	!	!	!LO:TX:a:t=t.	!	!	!	!	!	!	!	!	!
8B-\	4	.	8B-\	.	4dd\	.	4ff\	.	.	.	.	.	8r	8r
8BB-/J	3	.	8BB-/J	.	.	.	.	.	.	.	.	.	8dd\	8ff\
=62	=62	=62	=62	=62	=62	=62	=62	=62	=62	=62	=62	=62	=62	=62
4E-\	.	.	4E-\	.	4ee-\	.	4ee-\	.	4r	.	4r	.	(32ee-\LLL	(32gg\LLL
.	.	.	.	.	.	.	.	.	.	.	.	.	32ff\J	32aa-\J
.	.	.	.	.	.	.	.	.	.	.	.	.	16gg\JJ)	16bb-\JJ)
.	.	.	.	.	.	.	.	.	.	.	.	.	(16gg'\LL	16bb-\LL
.	.	.	.	.	.	.	.	.	.	.	.	.	16gg'\JJ)	16bb-\JJ
.	.	.	.	.	.	.	.	.	.	.	.	.	8qqgg/	8qqbb-/
16r	.	.	16r	.	4r	.	4r	.	8r	.	8r	.	4ff\	4aa-\
16D/LL	6 5	.	16D\LL	.	.	.	.	.	.	.	.	.	.	.
16C/	.	.	16C\	.	.	.	.	.	8b-/	.	8ff\	.	.	.
16BB-/JJ	.	.	16BB-\JJ	.	.	.	.	.	.	.	.	.	.	.
!	!	!	!	!	!	!	!	!	!	!	!	!	!LO:LB:g=original	!
=63	=63	=63	=63	=63	=63	=63	=63	=63	=63	=63	=63	=63	=63	=63
4E-\	.	.	4E-\	.	4r	.	4r	.	(32ee-\LLL	.	(32gg\LLL	.	4ee-\	4gg\
.	.	.	.	.	.	.	.	.	32ff\J	.	32aa-\J	.	.	.
.	.	.	.	.	.	.	.	.	16gg\JJ)	.	16bb-\JJ)	.	.	.
.	.	.	.	.	.	.	.	.	(16gg'\LL	.	(16bb-'\LL	.	.	.
.	.	.	.	.	.	.	.	.	16gg'\JJ)	.	16bb-'\JJ)	.	.	.
.	.	.	.	.	.	.	.	.	8qqgg/	.	8qqbb-/	.	.	.
16r	.	.	16r	.	8r	.	8r	.	4ff\	.	4aa-\	.	8r	8r
16D/LL	6 5	.	16D\LL	.	.	.	.	.	.	.	.	.	.	.
16C/	.	.	16C\	.	8f/	.	8a-/	.	.	.	.	.	8dd\	8ff\
16BB-/JJ	.	.	16BB-\JJ	.	.	.	.	.	.	.	.	.	.	.
!LO:LB:g=original	!	!	!	!	!	!	!	!	!	!	!	!	!	!
=64	=64	=64	=64	=64	=64	=64	=64	=64	=64	=64	=64	=64	=64	=64
8E-\L	.	.	8E-\L	.	(16e-/LL	.	(16g/LL	.	16ee-\LL	.	(16gg\LL	.	(16ee-\LL	(16gg\LL
.	.	.	.	.	16d/	.	16f/	.	16b-\	.	16ff\	.	16dd\	16ff\
8AA-/	7 5	.	8AA-\	.	16e-/)	.	16g/)	.	16ee-\	.	16gg\	.	16ee-\	16gg\
.	.	.	.	.	16f/JJ|	.	16a-/JJ|	.	16ff\JJ	.	16aa-\JJ)	.	16ff\JJ)	16aa-\JJ)
!	!	!	!	!	!	!	!	!	!	!	!LO:TX:a:t=t.	!	!LO:TX:a:t=t.	!LO:TX:a:t=t.
.	.	.	.	.	.	.	.	.	.	.	8qqgg/	.	8qqee-/	8qqgg/
!	!	!	!	!	!LO:TX:a:t=t.	!	!LO:TX:a:t=t	!	!	!	!	!	!	!
8BB-/	4	.	8BB-\	.	4d/	.	4f/	.	8.b-/L	.	4ff\	.	4dd\	4ff\
8BB-/J	3	.	8BB-\J	.	.	.	.	.	.	.	.	.	.	.
.	.	.	.	.	.	.	.	.	16b-/Jk	.	.	.	.	.
!	!	!	!	!	!LO:LB:g=original	!	!LO:LB:g=original	!	!	!	!	!	!	!LO:LB:g=original
=65	=65	=65	=65	=65	=65	=65	=65	=65	=65	=65	=65	=65	=65	=65
8E-\	.	.	8E-\	.	4e-/	.	4e-/	.	8g/L	.	8ee-\L	.	8ee-\	8ee-\
8r	.	.	8r	.	.	.	.	.	8b-/J	.	8ff\J	.	8r	8r
8r	.	.	8r	.	4r	.	4r	.	8ee-\	.	8gg\	.	8r	8r
!	!	!	!	!	!	!	!	!	!	!	!	!	!LO:TUP:a:t=P:problem=klamra łukowa	!LO:TUP:a:t=P:problem=klamra łukowa
8B-\	7	.	8B-\	.	.	.	.	.	8r	.	8r	.	24dd\LL	24ff\LL
.	.	.	.	.	.	.	.	.	.	.	.	.	24ee-\	24gg\
.	.	.	.	.	.	.	.	.	.	.	.	.	24ff\JJ	24aa-\JJ
=66	=66	=66	=66	=66	=66	=66	=66	=66	=66	=66	=66	=66	=66	=66
8e-\	.	.	8e-\	.	4r	.	4r	.	8r	.	8r	.	8ee-\	8gg\
8r	.	.	8r	.	.	.	.	.	8b-/	.	8ff\	.	8r	8r
!	!	!	!	!	!	!	!	!	!	!	!LO:LB:g=original	!	!	!
8r	.	.	8r	.	8r	.	8r	.	8ee-\L	.	8gg\L	.	8r	8r
!	!	!	!	!	!	!	!	!	!	!	!	!	!LO:TUP:a:t=P:problem=klamra łukowa	!LO:TUP:a:t=P:problem=klamra łukowa
8A-\	6	.	8A-\	.	8f/	.	8a-/	.	8ff\J	.	8aa-\J	.	24dd\LL	24ff\LL
.	.	.	.	.	.	.	.	.	.	.	.	.	24ee-\	24gg\
.	.	.	.	.	.	.	.	.	.	.	.	.	24ff\JJ	24aa-\JJ
=67	=67	=67	=67	=67	=67	=67	=67	=67	=67	=67	=67	=67	=67	=67
*	*	*	*	*	*	*	*Xtuplet	*	*	*	*	*	*	*
!LO:TX:a:t=P:problem=mixed beam	!	!	!LO:TX:a:t=P:problem=mixed beam	!	!LO:TUP:b	!	!	!	!	!	!	!	!	!
8B-\L	6 4	.	8B-\L	.	24e-/LL	.	24g/LL	.	4ee-\	.	4gg\	.	8ee-\	(32gg\KLL
.	.	.	.	.	.	.	.	.	.	.	.	.	.	16.bb-\JJ)
.	.	.	.	.	24g/	.	24b-/	.	.	.	.	.	.	.
.	.	.	.	.	24f/JJ	.	24a-/JJ	.	.	.	.	.	.	.
8B-\	.	.	8B-\	.	4e-/	.	24g/LL	.	.	.	.	.	4ee-\	16gg\LL
.	.	.	.	.	.	.	24f/	.	.	.	.	.	.	.
.	.	.	.	.	.	.	.	.	.	.	.	.	.	16ee-\JJ
.	.	.	.	.	.	.	24e-/JJ	.	.	.	.	.	.	.
!	!	!	!	!	!	!	!LO:TX:a:t=t	!	!	!	!	!	!	!
.	.	.	.	.	.	.	8qqe-/	.	.	.	.	.	.	8qqee-/
!	!	!	!	!	!	!	!	!	!	!	!LO:TX:a:t=t.	!	!	!LO:TX:a:t=t
8BB-/	5 3	.	8BB-/	.	.	.	4f/	.	4b-/	.	4ff\	.	.	4ff\
!	!	!	!	!	!LO:TX:a:t=t.	!	!	!	!	!	!	!	!LO:TX:a:t=t	!
8BB-/J	.	.	8BB-/J	.	8d/	.	.	.	.	.	.	.	8dd\	.
=68	=68	=68	=68	=68	=68	=68	=68	=68	=68	=68	=68	=68	=68	=68
8E-\L|	.	.	8E-\L|	.	8e-/L|	.	8e-/L|	.	8e-/L|	.	8ee-\L|	.	8ee-\L|	8ee-\L|
8BB-\J|	.	.	8BB-\J|	.	8B-/J|	.	8B-/|	.	8b-/J|	.	8b-\J|	.	8b-\J|	8b-\J|
8GG/L|	.	.	8GG/L|	.	8G/L|	.	8G/|	.	8g/L|	.	8g/L|	.	8g/L|	8g/L|
8BB-/J|	.	.	8BB-/J|	.	8B-/J|	.	8B-/J|	.	8b-/J|	.	8b-/J|	.	8b-/J|	8b-/J|
=69	=69	=69	=69	=69	=69	=69	=69	=69	=69	=69	=69	=69	=69	=69
4EE-/	.	.	4EE-/	.	4e-/	.	4e-/	.	4e-/	.	4e-/	.	4e-/	4e-/
4r	.	.	4r	.	4r	.	4r	.	4r	.	4r	.	4r	4r
==	==	==	==	==	==	==	==	==	==	==	==	==	==	==
*-	*-	*-	*-	*-	*-	*-	*-	*-	*-	*-	*-	*-	*-	*-
!!!system-decoration: [(g1)][(g2)][(g3)]s8
!!!RDF**kern: | = vertical stroke
!!!ENC: Berenika Jozajtis
!!!END: 2022-02-13
!!!ENC: Marta Lawrence
!!!END: 2022-02-22
